img/search.svg

<?xml version="1.0" encoding="iso-8859-1"?>
<!-- Generator: Adobe Illustrator 19.0.0, SVG Export Plug-In . SVG Version: 6.00 Build 0)  -->
<svg version="1.1" id="Capa_1" xmlns="http://www.w3.org/2000/svg" xmlns:xlink="http://www.w3.org/1999/xlink" x="0px" y="0px"
	 viewBox="0 0 512.005 512.005" style="enable-background:new 0 0 512.005 512.005;" xml:space="preserve">
<g>
	<g>
		<path d="M505.749,475.587l-145.6-145.6c28.203-34.837,45.184-79.104,45.184-127.317c0-111.744-90.923-202.667-202.667-202.667
			S0,90.925,0,202.669s90.923,202.667,202.667,202.667c48.213,0,92.48-16.981,127.317-45.184l145.6,145.6
			c4.16,4.16,9.621,6.251,15.083,6.251s10.923-2.091,15.083-6.251C514.091,497.411,514.091,483.928,505.749,475.587z
			 M202.667,362.669c-88.235,0-160-71.765-160-160s71.765-160,160-160s160,71.765,160,160S290.901,362.669,202.667,362.669z"/>
	</g>
</g>
<g>
</g>
<g>
</g>
<g>
</g>
<g>
</g>
<g>
</g>
<g>
</g>
<g>
</g>
<g>
</g>
<g>
</g>
<g>
</g>
<g>
</g>
<g>
</g>
<g>
</g>
<g>
</g>
<g>
</g>
</svg>

<svg width="513" height="513" viewBox="0 0 513 513" fill="none" xmlns="http://www.w3.org/2000/svg">
<path d="M505.749 475.587L360.149 329.987C388.352 295.15 405.333 250.883 405.333 202.67C405.333 90.926 314.41 0.00305176 202.666 0.00305176C90.922 0.00305176 0 90.925 0 202.669C0 314.413 90.923 405.336 202.667 405.336C250.88 405.336 295.147 388.355 329.984 360.152L475.584 505.752C479.744 509.912 485.205 512.003 490.667 512.003C496.129 512.003 501.59 509.912 505.75 505.752C514.091 497.411 514.091 483.928 505.749 475.587ZM202.667 362.669C114.432 362.669 42.667 290.904 42.667 202.669C42.667 114.434 114.432 42.6691 202.667 42.6691C290.902 42.6691 362.667 114.434 362.667 202.669C362.667 290.904 290.901 362.669 202.667 362.669Z" fill="#828282"/>
</svg>
